!!!OTL: WAS SOLL DAS BEDEUTEN
!!!ARE: Europa, Mitteleuropa, Deutschland, Schlesien; Maehren
!!!SCT: E1947
!!!YEM: Copyright 1995, estate of Helmut Schaffrath.
**kern
*ICvox
*Ivox
*M3/4
*k[b-e-]
*B-:
{8b-
8cc
=1
4dd
4dd
8cc
8dd
=2
4ee-
4ee-}
{8dd
8ee-
=3
4ff
4ff
8ee-
8dd
=4
2cc}
{8b-
8cc
=5
4dd
4dd
8cc
8dd
=6
4ee-
4ee-}
{8dd
8ee-
=7
4ff
4ff
8ee-
8dd
=8
2.cc}
=9
{4cc
8cc
8b-
8cc
8ee-
=10
2dd
4r}
=11
{4dd
8dd
8cc
8dd
8ee-
=12
2cc}
{8gg
8ee-
=13
4dd
4ff
8ee-
8dd
=14
4cc
4ee-}
{8dd
8cc
=15
8b-
8cc
4dd
4cc
=16
2b-}
==
!!!AGN: geistlich, Fest - Lied, Weihnachten
!!!ONB: ESAC (Essen Associative Code) Database: ERK3
!!!AMT: simple triple
!!!AIN: vox
!!!EED: Helmut Schaffrath
!!!EEV: 1.0
*-
